images/flower.svg

<svg width="43" height="45" viewBox="0 0 43 45" fill="none" xmlns="http://www.w3.org/2000/svg">
<path d="M37.1865 7.31364C28.35 7.31364 21.1865 14.4771 21.1865 23.3136C30.0231 23.3136 37.1865 16.1502 37.1865 7.31364Z" fill="#FF6E40"/>
<path d="M37.1865 37.3156C28.35 37.3156 21.1865 30.1522 21.1865 21.3156C30.0231 21.3156 37.1865 28.479 37.1865 37.3156Z" fill="#FF6E40"/>
<path d="M21.1865 23.3156C12.35 23.3156 5.18652 16.1522 5.18652 7.3156C14.0231 7.3156 21.1865 14.479 21.1865 23.3156Z" fill="#FF6E40"/>
<path d="M21.1865 21.3136C12.35 21.3136 5.18652 28.4771 5.18652 37.3136C14.0231 37.3136 21.1865 30.1502 21.1865 21.3136Z" fill="#FF6E40"/>
<path d="M42.8128 22.6289C36.5644 16.3806 26.4337 16.3806 20.1852 22.6289C26.4337 28.8773 36.5644 28.8773 42.8128 22.6289Z" fill="#FF6E40"/>
<path d="M42.8128 22.6289C36.5644 16.3806 26.4337 16.3806 20.1852 22.6289C26.4337 28.8773 36.5644 28.8773 42.8128 22.6289Z" fill="#FF6E40"/>
<path d="M22.8141 22.6292C16.5656 16.3809 6.43495 16.3809 0.186523 22.6292C6.43495 28.8776 16.5656 28.8776 22.8141 22.6292Z" fill="#FF6E40"/>
<path d="M21.5003 22.6273C15.2519 16.3789 15.2519 6.24835 21.5003 0C27.7487 6.24835 27.7487 16.3789 21.5003 22.6273Z" fill="#FF6E40"/>
<path d="M21.5003 22.002C15.2519 28.2503 15.2519 38.3809 21.5003 44.6292C27.7487 38.3809 27.7487 28.2503 21.5003 22.002Z" fill="#FF6E40"/>
</svg>

<svg width="43" height="45" fill="none" xmlns="http://www.w3.org/2000/svg"><path d="M37.187 7.314c-8.837 0-16 7.163-16 16 8.836 0 16-7.164 16-16z" fill="#FF6E40"/><path d="M37.187 37.316c-8.837 0-16-7.164-16-16 8.836 0 16 7.163 16 16zm-16.001-14c-8.836 0-16-7.164-16-16 8.837 0 16 7.163 16 16z" fill="#FF6E40"/><path d="M21.186 21.314c-8.836 0-16 7.163-16 16 8.837 0 16-7.164 16-16z" fill="#FF6E40"/><path d="M42.813 22.629c-6.249-6.248-16.38-6.248-22.628 0 6.249 6.248 16.38 6.248 22.628 0z" fill="#FF6E40"/><path d="M42.813 22.629c-6.249-6.248-16.38-6.248-22.628 0 6.249 6.248 16.38 6.248 22.628 0z" fill="#FF6E40"/><path d="M22.814 22.63c-6.248-6.25-16.38-6.25-22.627 0 6.248 6.248 16.379 6.248 22.627 0z" fill="#FF6E40"/><path d="M21.5 22.627C15.252 16.38 15.252 6.248 21.5 0c6.249 6.248 6.249 16.379 0 22.627z" fill="#FF6E40"/><path d="M21.5 22.002c-6.248 6.248-6.248 16.379 0 22.627 6.249-6.248 6.249-16.379 0-22.627z" fill="#FF6E40"/></svg>
